images/svg/bag.svg

<svg width="56" height="56" viewBox="0 0 56 56" fill="none" xmlns="http://www.w3.org/2000/svg">
<rect width="56" height="56" rx="6" fill="white"/>
<path d="M31.75 26.5V22C31.75 21.0054 31.3549 20.0516 30.6516 19.3483C29.9484 18.6451 28.9945 18.25 28 18.25C27.0054 18.25 26.0516 18.6451 25.3483 19.3483C24.6451 20.0516 24.25 21.0054 24.25 22V26.5M35.606 24.507L36.869 36.507C36.939 37.172 36.419 37.75 35.75 37.75H20.25C20.0922 37.7502 19.9361 37.7171 19.7919 37.6531C19.6477 37.589 19.5186 37.4953 19.413 37.3781C19.3074 37.2608 19.2276 37.1227 19.1788 36.9726C19.1301 36.8226 19.1134 36.6639 19.13 36.507L20.394 24.507C20.4231 24.2306 20.5536 23.9747 20.7602 23.7888C20.9669 23.6028 21.235 23.4999 21.513 23.5H34.487C35.063 23.5 35.546 23.935 35.606 24.507ZM24.625 26.5C24.625 26.5995 24.5855 26.6948 24.5152 26.7652C24.4448 26.8355 24.3494 26.875 24.25 26.875C24.1505 26.875 24.0551 26.8355 23.9848 26.7652C23.9145 26.6948 23.875 26.5995 23.875 26.5C23.875 26.4005 23.9145 26.3052 23.9848 26.2348C24.0551 26.1645 24.1505 26.125 24.25 26.125C24.3494 26.125 24.4448 26.1645 24.5152 26.2348C24.5855 26.3052 24.625 26.4005 24.625 26.5V26.5ZM32.125 26.5C32.125 26.5995 32.0855 26.6948 32.0152 26.7652C31.9448 26.8355 31.8494 26.875 31.75 26.875C31.6505 26.875 31.5551 26.8355 31.4848 26.7652C31.4145 26.6948 31.375 26.5995 31.375 26.5C31.375 26.4005 31.4145 26.3052 31.4848 26.2348C31.5551 26.1645 31.6505 26.125 31.75 26.125C31.8494 26.125 31.9448 26.1645 32.0152 26.2348C32.0855 26.3052 32.125 26.4005 32.125 26.5V26.5Z" stroke="#1E2438" stroke-width="2" stroke-linecap="round" stroke-linejoin="round"/>
</svg>

<svg xmlns="http://www.w3.org/2000/svg" width="56" height="56" fill="none"><rect width="56" height="56" fill="#fff" rx="6"/><path stroke="#1E2438" stroke-linecap="round" stroke-linejoin="round" stroke-width="2" d="M31.75 26.5V22a3.75 3.75 0 0 0-7.5 0v4.5m11.356-1.993 1.263 12c.07.665-.45 1.243-1.119 1.243h-15.5a1.126 1.126 0 0 1-1.12-1.243l1.264-12a1.125 1.125 0 0 1 1.119-1.007h12.974c.576 0 1.059.435 1.119 1.007ZM24.625 26.5a.375.375 0 1 1-.75 0 .375.375 0 0 1 .75 0v0Zm7.5 0a.375.375 0 1 1-.75 0 .375.375 0 0 1 .75 0v0Z"/></svg>
